img/step__06.svg

<svg width="55" height="37" viewBox="0 0 55 37" fill="none" xmlns="http://www.w3.org/2000/svg">
<path d="M50.7164 0.626587H5.0518C2.7338 0.626587 0.879395 2.50995 0.879395 4.86417V7.68925V13.8102V32.232C0.879395 34.5862 2.7338 36.4696 5.0518 36.4696H50.7164C53.0344 36.4696 54.8888 34.5862 54.8888 32.232V13.8102V7.68925V4.86417C54.8888 2.50995 53.0344 0.626587 50.7164 0.626587ZM5.0518 2.39225H50.7164C52.0493 2.39225 53.1503 3.5105 53.1503 4.86417V6.80641H2.6179V4.86417C2.6179 3.5105 3.71895 2.39225 5.0518 2.39225ZM53.1503 12.9274H2.6179V8.57208H53.1503V12.9274ZM50.7164 34.7039H5.0518C3.71895 34.7039 2.6179 33.5857 2.6179 32.232V14.693H53.1503V32.232C53.1503 33.5857 52.0493 34.7039 50.7164 34.7039Z" fill="black"/>
<path d="M9.28208 25.0516C7.60153 25.0516 6.26868 26.4053 6.26868 28.1121C6.26868 29.8189 7.60153 31.1726 9.28208 31.1726C10.9626 31.1726 12.2955 29.8189 12.2955 28.1121C12.2955 26.4642 10.9626 25.0516 9.28208 25.0516ZM9.28208 29.4658C8.58668 29.4658 8.00718 28.8772 8.00718 28.171C8.00718 27.4647 8.58668 26.8762 9.28208 26.8762C9.97748 26.8762 10.557 27.4647 10.557 28.171C10.557 28.8772 9.97748 29.4658 9.28208 29.4658Z" fill="#FF2B00"/>
<path d="M40.2274 27.4059H15.7146C15.251 27.4059 14.8453 27.8179 14.8453 28.2887C14.8453 28.7596 15.251 29.1715 15.7146 29.1715H40.2274C40.691 29.1715 41.0967 28.7596 41.0967 28.2887C41.0967 27.8179 40.749 27.4059 40.2274 27.4059Z" fill="#FF2B00"/>
</svg>

<svg width="55" height="37" fill="none" xmlns="http://www.w3.org/2000/svg"><path d="M50.716.627H5.052C2.734.627.879 2.51.879 4.864v27.368c0 2.354 1.855 4.238 4.173 4.238h45.664c2.318 0 4.173-1.884 4.173-4.238V4.864c0-2.354-1.855-4.237-4.173-4.237zM5.052 2.392h45.664c1.333 0 2.434 1.119 2.434 2.472v1.942H2.618V4.864c0-1.353 1.101-2.472 2.434-2.472zM53.15 12.927H2.618V8.572H53.15v4.355zm-2.434 21.777H5.052c-1.333 0-2.434-1.118-2.434-2.472V14.693H53.15v17.539c0 1.354-1.1 2.472-2.434 2.472z" fill="#000"/><path d="M9.282 25.052c-1.68 0-3.013 1.353-3.013 3.06s1.333 3.06 3.013 3.06 3.014-1.353 3.014-3.06c0-1.648-1.333-3.06-3.014-3.06zm0 4.414c-.695 0-1.275-.589-1.275-1.295s.58-1.295 1.275-1.295 1.275.589 1.275 1.295-.58 1.295-1.275 1.295zm30.945-2.06H15.715c-.464 0-.87.412-.87.883 0 .47.406.883.87.883h24.512c.464 0 .87-.412.87-.883 0-.471-.348-.883-.87-.883z" fill="#FF2B00"/></svg>
